svg/clockface/clockface/clock_04_45.svg

<?xml version="1.0" encoding="UTF-8" standalone="no"?>
<svg
   height="1000"
   width="1000"
   version="1.1"
   id="clock"
   viewBox="0 0 1000 1000"
   sodipodi:docname="clock_04_45.svg"
   xmlns:inkscape="http://www.inkscape.org/namespaces/inkscape"
   xmlns:sodipodi="http://sodipodi.sourceforge.net/DTD/sodipodi-0.dtd"
   xmlns="http://www.w3.org/2000/svg"
   xmlns:svg="http://www.w3.org/2000/svg">
  <defs
     id="defs10" />
  <sodipodi:namedview
     id="namedview8"
     pagecolor="#505050"
     bordercolor="#ffffff"
     borderopacity="1"
     inkscape:showpageshadow="0"
     inkscape:pageopacity="0"
     inkscape:pagecheckerboard="1"
     inkscape:deskcolor="#505050" />
  <g
     id="container">
    <g
       transform="translate(500,500) rotate(270)"
       id="g4">
      <path
         id="clock_04_45"
         style="color:#000000;fill:#000000;stroke-linecap:round;stroke-linejoin:round;-inkscape-stroke:none"
         d="m 0,-300 a 30,30 0 0 0 -30,30 V -8.0390625 L -115.98047,140.88477 A 30,30 0 0 0 -105,181.86523 30,30 0 0 0 -64.019531,170.88477 L 25.980469,15 A 30.003,30.003 0 0 0 30,0 V -270 A 30,30 0 0 0 0,-300 Z M 370,0 C 370,-203.98981 203.98981,-370 0,-370 -203.98981,-370 -370,-203.98981 -370,0 -370,203.98981 -203.98981,370 0,370 203.98981,370 370,203.98981 370,0 Z M 310,0 C 310,171.56344 171.56344,310 0,310 -171.56344,310 -310,171.56344 -310,0 c 0,-171.56344 138.43656,-310 310,-310 171.56344,0 310,138.43656 310,310 z" />
    </g>
  </g>
</svg>

<svg xmlns="http://www.w3.org/2000/svg" width="1000" height="1000"><path d="M0-300a30 30 0 0 0-30 30V-8.04l-85.98 148.925a30 30 0 0 0 10.98 40.98 30 30 0 0 0 40.98-10.98L25.98 15A30.003 30.003 0 0 0 30 0v-270a30 30 0 0 0-30-30ZM370 0c0-203.99-166.01-370-370-370S-370-203.99-370 0-203.99 370 0 370 370 203.99 370 0Zm-60 0c0 171.563-138.437 310-310 310S-310 171.563-310 0-171.563-310 0-310 310-171.563 310 0z" style="-inkscape-stroke:none" transform="rotate(-90 500 0)" stroke-linecap="round" stroke-linejoin="round"/></svg>
